Assets/Icons/interaction/file.svg

<svg enable-background="new 0 0 60 60" viewBox="0 0 60 60" xmlns="http://www.w3.org/2000/svg"><path d="m48.91 13.79-11.7-11.7c-.38-.38-.88-.59-1.41-.59h-23.3c-1.1 0-2 .9-2 2v43.5c0 6.35 5.15 11.5 11.5 11.5h25.5c1.1 0 2-.9 2-2v-41.29c0-.53-.21-1.04-.59-1.42zm-11.41-7.17 6.88 6.88h-6.88zm9 48.88h-24.5c-4.69 0-8.5-3.81-8.5-8.5v-42.5h21v10c0 1.1.9 2 2 2h10z"/></svg>

<?xml version="1.0" encoding="utf-8"?>
<!-- Generator: Adobe Illustrator 21.1.0, SVG Export Plug-In . SVG Version: 6.00 Build 0)  -->
<svg version="1.1" id="eps" xmlns="http://www.w3.org/2000/svg" xmlns:xlink="http://www.w3.org/1999/xlink" x="0px" y="0px"
	 viewBox="0 0 60 60" style="enable-background:new 0 0 60 60;" xml:space="preserve">
<path d="M48.91,13.79l-11.7-11.7C36.83,1.71,36.33,1.5,35.8,1.5H12.5c-1.1,0-2,0.9-2,2V47c0,6.35,5.15,11.5,11.5,11.5h25.5
	c1.1,0,2-0.9,2-2V15.21C49.5,14.68,49.29,14.17,48.91,13.79z M37.5,6.62l6.88,6.88H37.5V6.62z M46.5,55.5H22
	c-4.69,0-8.5-3.81-8.5-8.5V4.5h21v10c0,1.1,0.9,2,2,2h10V55.5z"/>
</svg>
